!!!!SEGMENT: pl-kk--kk-i-626--001-005_lisinski-karol--vesperae-laudate-dominum.krn
!!!cenid: 18xx:4610
!!!COM: Lisiński, Karol
!!!COM-rismID: pe50053612
!!!CDT:
!!!CNT: Polish
!!!OPR: Vesperae
!!!OTL: Laudate Dominum
!!!OMV: 005
!!!PDT:
!!!AGN: Sacred; Vespers
!!!YEC: Copyright 2022 Narodowy Instytut Fryderyka Chopina (https://polishscores.org)
!!!YEM: License CC-BY-4.0 (https://creativecommons.org/licenses/by/4.0)
!!!SMS-siglum: PL-Kk
!!!SMS-shelfmark: Kk.I.626
!!!SMS-variant: Violino Primo: Kk.I.626: 32; Violino Secundo: Kk.I.626: 42
!!!SMS-altvar: Violino Primo: Kk.I.626: 26-27; Kk.I.626: Violino Secundo: 36
!!!SMS-shelfwork: 001-005 M
!!!NIFC-rismSourceID: 1001210167
!!!NIFC-rismChildID: 1001210167
!!!NIFC-islandoraID: pl-kk:20059
!!!URL-pdf-islandora: https://repozytorium.nifc.pl/islandora/object/pl-kk:20059/datastream/PDF/view
!!!URL-scan: https://polish.musicsources.pl/pl/lokalizacje/galeria/rekopisy/7260/2 @EN{Scan on Polish Music Sources Website} @PL{Skany w portalu Dziedzictwo Muzyki Polskiej w otwartym dostępie}
!!!IIIF:
!!!ONB-nifc: UWAGA: Części Nieszporów: 1. Dixit Dominus, 2. Confitebor, 3. Beatus vir, 4. Laudate pueri, 5. Laudate Dominum, 6. Magnificat. Gloria wchodzi w ramy ww. części. do Uwaga: Partia Organo na skanach 57-59 i 2. Uwaga: Violino Primo i Secundo wg odpisów spisanych ręką tą samą co reszta partii (s. 29-33 i 39-44). Proszę uzupełnić pola SMS:variant i SMS:altvar.
!!!AIN: 1 alto 1 bass 1 canto 2 clrno 1 organ 1 tenor 1 viole 2 violn
!!!key:
**kern	**fba	**kern	**kern	**kern	**kern	**text	**kern	**text	**kern	**text	**kern	**text	**kern	**kern
*part10	*	*part9	*part8	*part7	*part6	*part6	*part5	*part5	*part4	*part4	*part3	*part3	*part2	*part1
*staff10	*	*staff9	*staff8	*staff7	*staff6	*staff6	*staff5	*staff5	*staff4	*staff4	*staff3	*staff3	*staff2	*staff1
*I"Organo	*	*I"Violone	*I"Violino Secundo	*I"Violino Primo	*I"Baſso.	*	*I"Tenore	*	*I"Alto	*	*I"Canto	*	*I"Clarino Secundo	*I"Clarino Primo
*I'Org.	*	*I'V-la	*I'Vn II	*I'Vn I	*I'B.	*	*I'T.	*	*I'A.	*	*I'C.	*	*I'Cl. in B♭	*I'Cl. in B♭
*Iorgan	*	*Iviole	*Ivioln	*Ivioln	*Ibass	*	*Itenor	*	*Ialto	*	*Icanto	*	*Iclrno	*Iclrno
*ICklav	*	*ICstr	*ICstr	*ICstr	*ICvox	*	*ICvox	*	*ICvox	*	*ICvox	*	*ICbras	*ICbras
*clefF4	*	*clefF4	*clefG2	*clefG2	*clefF4	*	*clefC4	*	*clefC3	*	*clefC1	*	*clefG2	*clefG2
*	*	*	*	*	*	*	*	*	*	*	*	*	*ITrd-1c-3	*ITrd-1c-3
*k[b-e-a-]	*	*k[b-e-a-]	*k[b-e-a-]	*k[e-b-a-]	*k[b-e-a-]	*	*k[b-e-a-]	*	*k[b-e-a-]	*	*k[b-e-a-]	*	*k[]	*k[]
*E-:	*	*E-:	*E-:	*E-:	*E-:	*	*E-:	*	*E-:	*	*E-:	*	*E-:	*E-:
*M3/4	*	*M3/4	*M3/4	*M3/4	*M3/4	*	*M3/4	*	*M3/4	*	*M3/4	*	*M3/4	*M3/4
=1	=1	=1	=1	=1	=1	=1	=1	=1	=1	=1	=1	=1	=1	=1
!LO:TX:a:t=Solo Adagio	!	!LO:TX:a:t=Solo adagio	!LO:TX:a:t=ada(gio)&colon; Solo Dolce	!LO:TX:a:t=Adagio Dolce	!	!	!	!	!	!	!LO:TX:a:t=Andante	!	!LO:TX:a:t=ex Dis	!LO:TX:a:t=ex Dis
!LO:TX:b:t=Laudate Dominum	!	!LO:TX:b:t=Laudate Dominum	!LO:TX:b:t=Laudate Dominum	!LO:TX:b:t=Laudate Dominum	!LO:N:vis=00	!	!LO:N:vis=00	!	!LO:N:vis=00	!	!LO:N:vis=00	!	!LO:TX:b:t=Laudate Dominum	!LO:TX:b:t=Laudate Dominum
4E-\	.	4E-\	8g/L	8b-/L	0.r	.	0.r	.	0.r	.	0.r	.	8ff\L	8aa\L
.	.	.	8f/J	8a-/J	.	.	.	.	.	.	.	.	8ee\J	8gg\J
4r	.	4r	4e-/	4g/	.	.	.	.	.	.	.	.	4dd\	4ff\
4r	.	4r	4a-/	4cc\	.	.	.	.	.	.	.	.	4gg\	4bb\
=2	=2	=2	=2	=2	=2	=2	=2	=2	=2	=2	=2	=2	=2	=2
4E-\	.	4E-\	8g/L	8b-/L	.	.	.	.	.	.	.	.	8ff\L	8aa\L
.	.	.	8f/J	8a-/J	.	.	.	.	.	.	.	.	8ee\J	8gg\J
4r	.	4r	4e-/	4g/	.	.	.	.	.	.	.	.	4dd\	4ff\
4r	.	4r	4a-/	4cc\	.	.	.	.	.	.	.	.	4gg\	4bb\
=3	=3	=3	=3	=3	=3	=3	=3	=3	=3	=3	=3	=3	=3	=3
4E-\	.	4E-\	4.g/	4.b-/	.	.	.	.	.	.	.	.	4.ff\	4aa\
4r	.	4r	.	.	.	.	.	.	.	.	.	.	.	4gg\
.	.	.	8f/	8a-/	.	.	.	.	.	.	.	.	8ee\	.
4r	.	4r	4e-/	4g/	.	.	.	.	.	.	.	.	4dd\	4ff\
=4	=4	=4	=4	=4	=4	=4	=4	=4	=4	=4	=4	=4	=4	=4
4A-\	8 6	4A-\	4f/	4a-/	.	.	.	.	.	.	.	.	4ee\	4gg\
4B-\	6 4	4B-\	4e-/	4g/	.	.	.	.	.	.	.	.	4dd\	4ff\
4BB-/	7	4BB-/	4d/	4f/	.	.	.	.	.	.	.	.	4a/	4ee\
=5	=5	=5	=5	=5	=5	=5	=5	=5	=5	=5	=5	=5	=5	=5
!	!	!	!	!	!LO:N:vis=00	!	!LO:N:vis=00	!	!LO:N:vis=00	!	!LO:N:vis=00	!	!	!
*	*	*	*	*	*	*	*	*	*	*	*	*	*	*2\right
4E-\	.	4E-\	2.e-/	8g/L	0.r	.	0.r	.	0.r	.	0.r	.	2d/	2ff\
.	.	.	.	8f/J	.	.	.	.	.	.	.	.	.	.
4G\	6	4G\	.	2e-/	.	.	.	.	.	.	.	.	.	.
4E-\	.	4E-\	.	.	.	.	.	.	.	.	.	.	4r	4r
=6	=6	=6	=6	=6	=6	=6	=6	=6	=6	=6	=6	=6	=6	=6
4B-\	7	4B-\	16B-/LL	16d/LL	.	.	.	.	.	.	.	.	2.r	2.r
.	.	.	16c/J	16e-/J	.	.	.	.	.	.	.	.	.	.
.	.	.	8d/	(8f/	.	.	.	.	.	.	.	.	.	.
4r	.	4r	8d/J	8f/	.	.	.	.	.	.	.	.	.	.
!	!	!	!LO:PB:g=original	!	!	!	!	!	!	!	!	!	!	!
.	.	.	8d/L	8f/	.	.	.	.	.	.	.	.	.	.
4B-\	7	4B-\	8d/	8f/	.	.	.	.	.	.	.	.	.	.
.	.	.	8d/J	8f/J)	.	.	.	.	.	.	.	.	.	.
!	!	!	!	!LO:LB:g=original	!	!	!	!	!	!	!	!	!	!
=7	=7	=7	=7	=7	=7	=7	=7	=7	=7	=7	=7	=7	=7	=7
4E-\	.	4E-\	8e-/L	16e-/LL	.	.	.	.	.	.	.	.	8dd\L	16dd\LL
.	.	.	.	16f/J	.	.	.	.	.	.	.	.	.	16ee\J
!	!	!	!	!	!	!	!	!	!	!	!	!	!	!LO:N:vis=16
.	.	.	8e-/	(8g/	.	.	.	.	.	.	.	.	8dd\	8ff\
4r	.	4r	8e-/	8g/	.	.	.	.	.	.	.	.	8dd\	8ff\
.	.	.	8e-/	8g/	.	.	.	.	.	.	.	.	8dd\	8ff\
4r	.	4r	8e-/	8g/	.	.	.	.	.	.	.	.	8dd\	8ff\
.	.	.	8e-/J	8g/J)	.	.	.	.	.	.	.	.	8ddJ	8ff\J
!	!	!	!	!	!	!	!	!	!	!	!	!	!LO:LB:g=original	!
=8	=8	=8	=8	=8	=8	=8	=8	=8	=8	=8	=8	=8	=8	=8
4E-\	.	4E-\	4.g/	4.b-/	.	.	.	.	.	.	.	.	4.ff\	4.aa\
4r	.	4r	.	.	.	.	.	.	.	.	.	.	.	.
.	.	.	8f/	8a-/	.	.	.	.	.	.	.	.	8ee\	8gg\
4r	.	4r	4e-/	4g/	.	.	.	.	.	.	.	.	4dd\	4ff\
!	!	!	!	!	!	!	!	!	!	!	!	!	!	!LO:LB:g=original
=9	=9	=9	=9	=9	=9	=9	=9	=9	=9	=9	=9	=9	=9	=9
!	!	!	!	!	!LO:N:vis=00	!	!	!	!	!	!LO:N:vis=00	!	!	!
4A-\	65	4A-\	4e-/	4f/	0.r	.	2.r	.	2.r	.	0.r	.	4dd\	4ee\
4B-\	6 4	4B-\	4e-/	4g/	.	.	.	.	.	.	.	.	4cc\	4ff\
4BB-/	5 3	4BB-/	4d/	8f/L	.	.	.	.	.	.	.	.	4a/	8ee\L
.	.	.	.	8e-/J	.	.	.	.	.	.	.	.	.	8dd\J
!LO:LB:g=original	!	!LO:LB:g=original	!	!	!	!	!	!	!	!	!	!	!	!
=10	=10	=10	=10	=10	=10	=10	=10	=10	=10	=10	=10	=10	=10	=10
4E-\	.	4E-\	4e-/	4e-/	.	.	8B-\L	Lau-	8g\L	Lau-	.	.	4f/	4dd\
.	.	.	.	.	.	.	8A-\J	.	8f\J	.	.	.	.	.
4r	.	4r	4r	4r	.	.	4G/	-da-	4e-\	-da-	.	.	4r	4r
4r	.	4r	4r	4r	.	.	4c\	-te	4a-\	-te	.	.	4r	4r
=11	=11	=11	=11	=11	=11	=11	=11	=11	=11	=11	=11	=11	=11	=11
!	!	!	!	!LO:TX:a:t=2	!	!	!	!	!	!	!	!	!	!
!	!	!	!LO:N:vis=0	!LO:N:vis=0	!	!	!	!	!	!	!	!	!LO:N:vis=0	!LO:N:vis=0
4E-\	.	4E-\	1.r	1.r	.	.	4.B-\	Do-	4.g\	Do-	.	.	1.r	1.r
4r	.	4r	.	.	.	.	.	.	.	.	.	.	.	.
.	.	.	.	.	.	.	8A-\	-mi-	8f\	-mi-	.	.	.	.
4r	.	4r	.	.	.	.	4G/	-nu	4e-\	-num	.	.	.	.
=12	=12	=12	=12	=12	=12	=12	=12	=12	=12	=12	=12	=12	=12	=12
4A-\	86	4A-\	.	.	.	.	4A-/	om-	(4f\	om-	.	.	.	.
4B-\	6 7	4B-\	.	.	.	.	4G/	.	4e-\)	.	.	.	.	.
4BB-/	3	4BB-/	.	.	.	.	4F/	-nes	4d\	-nes	.	.	.	.
=13	=13	=13	=13	=13	=13	=13	=13	=13	=13	=13	=13	=13	=13	=13
!	!	!	!	!	!LO:N:vis=00	!	!	!	!	!	!LO:N:vis=00	!	!	!
4E-\	.	4E-\	8e-/L	16e-/LL	0.r	.	4G/	gen-	4e-\	gen-	0.r	.	8r	8r
.	.	.	.	16f/J	.	.	.	.	.	.	.	.	.	.
.	.	.	8e-/	8g/	.	.	.	.	.	.	.	.	8dd\L	8ff\L
4r	.	4r	8e-/	8g/	.	.	4E-/	-tes.	4e-\	-tes	.	.	8dd\	8ee\
.	.	.	8e-/J	8g/	.	.	.	.	.	.	.	.	8dd\	8ff\
!	!	!	!LO:LB:g=original	!	!	!	!	!	!	!	!	!	!	!
4r	.	4r	8e-/L	8g/	.	.	4r	.	4r	.	.	.	8dd\	8ff\
.	.	.	8e-/J	8g/J	.	.	.	.	.	.	.	.	8dd\J	8ff\J
!	!	!	!	!	!	!	!	!	!LO:LB:g=original	!	!	!	!	!
=14	=14	=14	=14	=14	=14	=14	=14	=14	=14	=14	=14	=14	=14	=14
!	!	!	!	!	!	!	!LO:TX:a:t=3	!	!LO:TX:a:t=3	!	!	!	!	!
!	!	!	!	!	!	!	!LO:N:vis=0	!	!LO:N:vis=0	!	!	!	!	!
4B-\	7	4B-\	16d/LL	16f/LL	.	.	1.r	.	1.r	.	.	.	16a\LL	16ee\LL
.	.	.	16e-/J	16g/J	.	.	.	.	.	.	.	.	16dd\J	16ff\J
.	.	.	8f/	8a-/	.	.	.	.	.	.	.	.	8ee\	8gg\J
4r	.	4r	8f/	8a-/	.	.	.	.	.	.	.	.	8ee\	8gg\L
.	.	.	8f/	8a-/	.	.	.	.	.	.	.	.	8ee\	8gg\
4B-\	.	4B-\	8f/	8a-/	.	.	.	.	.	.	.	.	8ee\	8gg\
.	.	.	8f/J	8a-/J	.	.	.	.	.	.	.	.	8ee\J	8gg\J
=15	=15	=15	=15	=15	=15	=15	=15	=15	=15	=15	=15	=15	=15	=15
4E-\	.	4E-\	4.g/	4.b-/	.	.	.	.	.	.	.	.	4.ff\	4.aa\
4r	.	4r	.	.	.	.	.	.	.	.	.	.	.	.
.	.	.	8f/	8a-/	.	.	.	.	.	.	.	.	8ee\	8gg\
4E-\	.	4E-\	4e-/	4g/	.	.	.	.	.	.	.	.	4dd\	4ff\
!	!	!	!	!LO:LB:g=original	!	!	!	!	!	!	!	!	!	!
=16	=16	=16	=16	=16	=16	=16	=16	=16	=16	=16	=16	=16	=16	=16
4A-\	8 6	4A-\	4f/	4a-/	.	.	2.r	.	2.r	.	.	.	4ee\	4gg\
4B-\	6 4	4B-\	4e-/	4g/	.	.	.	.	.	.	.	.	4dd\	4ff\
4BB-/	5 3	4BB-/	4d/	4f/	.	.	.	.	.	.	.	.	4a/	4ee\
!	!	!	!	!	!	!	!LO:LB:g=original	!	!	!	!	!	!LO:LB:g=original	!
=17	=17	=17	=17	=17	=17	=17	=17	=17	=17	=17	=17	=17	=17	=17
!	!	!	!	!	!LO:N:vis=00	!	!	!	!	!	!LO:N:vis=00	!	!	!
*	*	*	*	*	*	*	*	*ij	*	*ij	*	*	*	*
4E-\	.	4E-\	4e-/	4e-/	0.r	.	8B-\L	Lau-	8g\L	Lau-	0.r	.	4f/	4dd\
.	.	.	.	.	.	.	8A-\J	.	8f\J	.	.	.	.	.
4r	.	4r	4r	4r	.	.	4G/	-da-	4e-\	-da-	.	.	4r	4r
4r	.	4r	4r	4r	.	.	4c\	-te	4a-\	-te	.	.	4r	4r
!	!	!	!	!	!	!	!	!	!	!	!	!	!	!LO:LB:g=original
=18	=18	=18	=18	=18	=18	=18	=18	=18	=18	=18	=18	=18	=18	=18
!	!	!	!	!LO:TX:a:t=7	!	!	!	!	!	!	!	!	!	!
!	!	!	!LO:N:vis=00	!LO:N:vis=00	!	!	!	!	!	!	!	!	!LO:N:vis=00	!LO:N:vis=00
4E-\	.	4E-\	0.r	0.r	.	.	4.B-\	Do-	4.g\	Do-	.	.	0.r	0.r
4r	.	4r	.	.	.	.	.	.	.	.	.	.	.	.
.	.	.	.	.	.	.	8A-\	-mi-	8f\	-mi-	.	.	.	.
4r	.	4r	.	.	.	.	4G/	-nu	4e-\	-num	.	.	.	.
=19	=19	=19	=19	=19	=19	=19	=19	=19	=19	=19	=19	=19	=19	=19
4A-\	8 6	4A-\	.	.	.	.	(4A-/	om-	4f\	om-	.	.	.	.
4B-\	6 4	4B-\	.	.	.	.	4G/	.	4e-\	.	.	.	.	.
4BB-/	7 3	4BB-/	.	.	.	.	4F/)	-nes	4d\	-nes	.	.	.	.
*	*	*	*	*	*	*	*	*Xij	*	*	*	*	*	*
!LO:LB:g=original	!	!	!	!	!	!	!	!	!	!	!	!	!	!
=20	=20	=20	=20	=20	=20	=20	=20	=20	=20	=20	=20	=20	=20	=20
4E-\	.	4E-\	.	.	.	.	4G/	gen-	4e-\	gen-	.	.	.	.
4r	.	4r	.	.	.	.	4B-\	.	4e-\	-tes	.	.	.	.
*	*	*	*	*	*	*	*	*	*	*Xij	*	*	*	*
4E-\	.	4E-\	.	.	.	.	4e-\	-tes	4g\	Lau-	.	.	.	.
!	!	!LO:LB:g=original	!	!	!	!	!	!	!	!	!	!	!	!
=21	=21	=21	=21	=21	=21	=21	=21	=21	=21	=21	=21	=21	=21	=21
!	!	!	!	!	!LO:N:vis=00	!	!	!	!	!	!LO:N:vis=00	!	!	!
*	*	*	*	*	*	*	*	*	*2\right	*	*	*	*	*
4B-\	6 4	4B-\	.	.	0.r	.	(4e-\	Lau-	2f\	-da-	0.r	.	.	.
4r	.	4r	.	.	.	.	4d\)	-da-	.	.	.	.	.	.
4r	.	4r	.	.	.	.	4c\	-te	4f\	-te	.	.	.	.
!	!	!	!	!	!	!	!	!	!LO:LB:g=original	!	!	!	!	!
=22	=22	=22	=22	=22	=22	=22	=22	=22	=22	=22	=22	=22	=22	=22
!	!	!	!LO:N:vis=0	!LO:N:vis=0	!	!	!	!	!	!	!	!	!LO:N:vis=00	!LO:N:vis=0
4D\	6	4D\	1.r	1.r	.	.	(4B-\	e-	2b-\	e-	.	.	1.r	1.r
4D\	.	4D\	.	.	.	.	4d\	.	.	.	.	.	.	.
4D\	-5	4D\	.	.	.	.	4f\)	-um	4a-\	-um	.	.	.	.
!	!	!	!	!	!	!	!LO:LB:g=original	!	!	!	!	!	!	!
=23	=23	=23	=23	=23	=23	=23	=23	=23	=23	=23	=23	=23	=23	=23
4E-\	9	4E-\	.	.	.	.	4f\	om-	2g\	om-	.	.	.	.
4E-\	8	4E-\	.	.	.	.	(8e-\L	.	.	.	.	.	.	.
.	.	.	.	.	.	.	8d\J)	.	.	.	.	.	.	.
4E-\	.	4E-\	.	.	.	.	4e-\	-nes	4g\	-nes	.	.	.	.
=24	=24	=24	=24	=24	=24	=24	=24	=24	=24	=24	=24	=24	=24	=24
4A-\	56	4A-\	2.r	2.r	.	.	2e-\	po-	4f\	po-	.	.	2.r	2.r
4B-\	6 4	4B-\	.	.	.	.	.	.	8g\L	.	.	.	.	.
.	.	.	.	.	.	.	.	.	8f\	.	.	.	.	.
4BB-/	5 3	4BB-/	.	.	.	.	4d\	-pu-	8f\	.	.	.	.	.
.	.	.	.	.	.	.	.	.	8e-\J	-pu-	.	.	.	.
=25	=25	=25	=25	=25	=25	=25	=25	=25	=25	=25	=25	=25	=25	=25
*	*	*	*	*	*2\right	*	*	*	*	*	*2\right	*	*	*
!LO:TX:a:t=Tutti	!	!LO:TX:a:t=Tu&colon;	!	!	!	!	!	!	!	!	!LO:TX:a:t=Tut&colon;	!	!	!
4.E-\	.	4.E-\	8g/L	8ee-\L	2E-\	Quo-	4e-\	-li	4e-\	-li	2ee-\	Quo-	4dd\	4ff\
.	.	.	8g/	(8b-\	.	.	.	.	.	.	.	.	.	.
.	.	.	8g/	8b-\	.	.	4B-\	quo-	4g\	quo-	.	.	4dd\	4ff\
8E-\	.	8E-\	8b-/J	(8g\)	.	.	.	.	.	.	.	.	.	.
!	!	!	!LO:LB:g=original	!	!	!	!	!	!	!	!	!	!	!
4E-\	.	4E-\	8b-/L	8g\	4E-\	-ni-	4B-\	-ni-	4g\	-ni-	4ee-\	-ni-	4dd\	4ff\
.	.	.	8g/J	8e-\J)	.	.	.	.	.	.	.	.	.	.
=26	=26	=26	=26	=26	=26	=26	=26	=26	=26	=26	=26	=26	=26	=26
4E-\	.	4E-\	16e-/LL	8g/L	4E-\	-am	4B-\	-am	4g\	-am	4ee-\	-am	16dd\LL	16ff\LL
.	.	.	16f/J	.	.	.	.	.	.	.	.	.	16ee\J	16gg\J
.	.	.	8g/	8a-/	.	.	.	.	.	.	.	.	8ff\	8aa\
4r	.	4r	8g/	8b-/	4r	.	4r	.	4r	.	4r	.	8ff\	8aa\
.	.	.	8g/	8b-/	.	.	.	.	.	.	.	.	8ff\	8aa\
4r	.	4r	8g/	8b-/	4r	.	4r	.	4r	.	4r	.	8ff\	8aa\
.	.	.	8g/J	8a-/J	.	.	.	.	.	.	.	.	8ff\J	8aa\J
=27	=27	=27	=27	=27	=27	=27	=27	=27	=27	=27	=27	=27	=27	=27
!	!	!	!	!LO:TX:a:t=P:problem:mixed beam	!	!	!	!	!	!	!	!	!	!
*	*	*	*	*	*	*ij	*	*ij	*	*ij	*	*ij	*	*
4.E-\	.	4.E-\	8e-/L	8g/L	4.E-\	Quo-	4.B-\	quo-	4.g\	quo-	4.ee-\	Quo-	8ff\L	8aa\L
.	.	.	8g/	8ee-\	.	.	.	.	.	.	.	.	8ff\	8aa\
.	.	.	8g/	8ee-\	.	.	.	.	.	.	.	.	8ff\	8aa\
8E-\	.	8E-\	8g/	8ee-\	8E-\	-ni-	8B-\	-ni-	8g\	-ni-	8ee-\	-ni-	8ff\	8aa\
4E-\	.	4E-\	8g/	8ee-\	4E-\	-am	4B-\	-am	4g\	-am	4ee-\	-am	8ff\	8aa\
*	*	*	*	*	*	*Xij	*	*Xij	*	*Xij	*	*Xij	*	*
.	.	.	8g/J	8gg\J	.	.	.	.	.	.	.	.	8ff\J	8aa\J
!	!	!	!	!	!	!	!	!	!LO:LB:g=original	!	!	!	!	!
=28	=28	=28	=28	=28	=28	=28	=28	=28	=28	=28	=28	=28	=28	=28
*2\right	*	*2\right	*	*	*	*	*2\right	*	*	*	*	*	*	*
2D-X\	4 2	2D-X\	8g/L	8ee-\L	2D-X\	con-	2B-\	con-	2g\	con-	2ee-\	con-	4ff\	4aa\
.	.	.	8g/	8ee-\	.	.	.	.	.	.	.	.	.	.
.	.	.	8g/	8ee-\	.	.	.	.	.	.	.	.	4ff\	4aa\
.	.	.	8g/	8ee-\	.	.	.	.	.	.	.	.	.	.
4D-\	.	4D-\	8b-/	8ee-\	4D-\	-fir-	4B-\	-fir-	4g\	-fir-	4ee-\	-fir-	4ff\	4aa\
.	.	.	8b-/J	8ee-\J	.	.	.	.	.	.	.	.	.	.
!LO:LB:g=original	!	!	!	!	!	!	!	!	!	!	!	!	!LO:LB:g=original	!
=29	=29	=29	=29	=29	=29	=29	=29	=29	=29	=29	=29	=29	=29	=29
4.C/	-7 n	4.C/	8b-/L	8een\L	4.C/	-ma-	4.c\	-ma-	4.g\	-ma-	4.een\	-ma-	8f/L	8ff\L
.	.	.	8b-/	8ee\	.	.	.	.	.	.	.	.	8f/	8ff\
.	.	.	8b-/	8ee\	.	.	.	.	.	.	.	.	8f/	8ff\
8C/	.	8C/	8b-/	8ee\	8C/	-ta	8c\	-ta	8g\	-te	8ee\	-ta	8f/	8ff\
4c\	.	4c\	8b-/	8ee\	4C/	e(st)	4c\	est	4g\	est	4ee\	est	8f/	8ff\
.	.	.	8b-/J	8ee\J	.	.	.	.	.	.	.	.	8f/J	8ff\J
!	!	!LO:LB:g=original	!	!LO:LB:g=original	!	!	!LO:LB:g=original	!	!	!	!LO:LB:g=original	!	!	!LO:LB:g=original
=30	=30	=30	=30	=30	=30	=30	=30	=30	=30	=30	=30	=30	=30	=30
4A-X\	6	4G\	8f/L	8ff\L	(4A-\	su-	2c\	su-	4f\	su-	2ff\	su-	4dd\	8ee\L
.	.	.	8f/	8ff\	.	.	.	.	.	.	.	.	.	8ee\
4F\	.	4F\	8a-/	8ff\	4F\)	.	.	.	4a-\	.	.	.	4dd\	8gg\
.	.	.	8a-/J	8ff\	.	.	.	.	.	.	.	.	.	8gg\
!	!	!	!LO:LB:g=original	!	!	!	!	!	!	!	!	!	!	!
4A-\	.	4A-\	8f/L	8ff\	4A-\	.	4c\	-per-	4f\	-per-	4ff\	-per-	4dd\	8ee\
.	.	.	8f/J	8ff\J	.	.	.	.	.	.	.	.	.	8ee\J
=31	=31	=31	=31	=31	=31	=31	=31	=31	=31	=31	=31	=31	=31	=31
!	!	!	!LO:TX:a:t=P:problem:mixed beam	!	!	!	!	!	!	!	!	!	!	!
4.B-\	.	4.B-\	8d/L	8ff\L	2B-\	-per	2B-\	-nos	2f\	-nos	2dd\	-nos	4a/	4ee\
.	.	.	8dd\	8ff\	.	.	.	.	.	.	.	.	.	.
.	.	.	8dd\	8ff\	.	.	.	.	.	.	.	.	4a/	4ee\
8B-\	.	8B-\	8dd\	8ff\	.	.	.	.	.	.	.	.	.	.
4B-\	.	4B-\	8dd\	8ff\	4B-\	nos	4B-\	mi-	4f\	mi-	4dd\	mi-	4a/	4ee\
.	.	.	8dd\J	8ff\J	.	.	.	.	.	.	.	.	.	.
!	!	!	!	!	!LO:LB:g=original	!	!	!	!	!	!	!	!	!
=32	=32	=32	=32	=32	=32	=32	=32	=32	=32	=32	=32	=32	=32	=32
4G\	6	4G\	8b-\L	8ee-X\L	4G\	mi-	2B-\	-se-	2g\	-se-	2ee-\	-se-	4a/	4ff\
.	.	.	8b-\	8ee-\	.	.	.	.	.	.	.	.	.	.
4E-\	.	4E-\	8g\	8ee-\	4E-\	-se-	.	.	.	.	.	.	4a/	4aa\
.	.	.	8g\	8ee-\	.	.	.	.	.	.	.	.	.	.
4G\	.	4G\	8b-\	8ee-\	4G\	-ri-	4B-\	-ri-	4g\	-ri-	4ee-\	-ri-	4dd\	4ff\
.	.	.	8b-\J	8ee-\J	.	.	.	.	.	.	.	.	.	.
=33	=33	=33	=33	=33	=33	=33	=33	=33	=33	=33	=33	=33	=33	=33
4B-\	.	4B-\	4f/	4dd\	4B-\	-cor-	4B-\	-cor-	4.f\	-cor-	2dd\	-cor-	4dd\	4ee\
4A-X\	4 2	4A-X\	4f/	4dd\	4A-X\	-di-	4B-\	-di-	.	.	.	.	4dd\	4ee\
.	.	.	.	.	.	.	.	.	8f\	-di-	.	.	.	.
4G\	.	4G\	4g/	4ee-\	4G\	-a	4B-\	-a	4g\	-a	4ee-\	-dia	4ee\	4ff\
=34	=34	=34	=34	=34	=34	=34	=34	=34	=34	=34	=34	=34	=34	=34
4A-\	6	4A-\	4cc\	4ff\	4.A-\	e-	4A-\	e-	4.f\	e-	4cc\	e-	4dd\	4bb\
4G\	76\	4G\	4b-\	8ff\L	.	.	4B-\	-jus	.	.	4b-\	-jus	4dd\	4aa\
.	.	.	.	8een\J	8G\	-jus	.	.	8en\	-jus	.	.	.	.
4F\	.	4F\	4a-/	4ff\	4F\	et	4B-\	et	4f\	et	4a-X\	et	4dd\	4gg\
!	!	!	!	!	!	!	!	!	!LO:LB:g=original	!	!	!	!	!
=35	=35	=35	=35	=35	=35	=35	=35	=35	=35	=35	=35	=35	=35	=35
4.G\	6	4.G\	4.b-\	4ee-X\	4.G\	ve-	4.B-\	ve-	4.e-\	ve-	4.b-\	ve-	2.ryy	4aa\
.	.	.	.	4dd\	.	.	.	.	.	.	.	.	.	4gg\
8F\	.	8F\	8a-\	.	8F\	-ri-	8B-\	-ri-	8f\	-ri-	8a-\	-ri-	.	.
4E-\	.	4E-\	4g\	4ee-\	4E-\	-tas	4B-\	-tas	4g\	-tas	4g\	-tas	.	4ff\
=36	=36	=36	=36	=36	=36	=36	=36	=36	=36	=36	=36	=36	=36	=36
4.B-\	.	4.B-\	8f\L	8dd\L	4.B-\	D(o-	4.B-\	Do-	4.f\	Do-	4.f/	Do-	8a/L	8ee\L
.	.	.	8dd\J	8ff\	.	.	.	.	.	.	.	.	8a/	8ee\
!	!	!	!LO:LB:g=original	!	!	!	!	!	!	!	!	!	!	!
.	.	.	8dd\L	8ff\	.	.	.	.	.	.	.	.	8a/	8ee\
8BB-/	.	8BB-/	8ff\	8bb-\	8BB-/	-mi)-	8B-\	-mi-	8f\	-mi-	8f/	-mi-	8a/	8ee\
!LO:TX:a:t=wybrakowane źródło w taktach 37-75	!	!	!	!	!	!	!	!	!	!	!	!	!	!
4BB-/	.	4BB-/	8ff\	8bb-\	4BB-/	-ni	4B-\	-ni	4f\	-ni	4f/	-ni	8a/	8ee\
.	.	.	8dd\J	8ff\J	.	.	.	.	.	.	.	.	8a/J	8ee\J
!	!	!	!	!	!	!	!LO:LB:g=original	!	!	!	!	!	!LO:LB:g=original	!LO:LB:g=original
=37	=37	=37	=37	=37	=37	=37	=37	=37	=37	=37	=37	=37	=37	=37
2.ryy	.	4E-\	4ee-\	4gg\	(4E-\	ma-	2B-\	ma-	4g\	ma-	(4e-/	ma-	4dd\	4ff\
.	.	4G\	4ee-\	4bb-\	4G\)	.	.	.	4b-\	.	4ee-\)	.	4dd\	4aa\
.	.	4E-\	4ee-\	4gg\	4E-\	-net	4B-\	-net	4g\	-net	4ee-\	-net	4dd\	4ff\
!	!	!	!	!LO:LB:g=original	!	!	!	!	!	!	!LO:LB:g=original	!	!	!
=38	=38	=38	=38	=38	=38	=38	=38	=38	=38	=38	=38	=38	=38	=38
*	*	*	*	*	*	*ij	*	*ij	*	*ij	*	*ij	*	*
2.ryy	.	4A-X\	4ee-\	4ccc\	4A-\	ma-	(4c\	ma-	2e-\	ma-	2ee-\	ma-	4dd\	4bb\
.	.	4G\	4ee-\	4bb-\	4G\	.	4B-\	.	.	.	.	.	4dd\	4aa\
.	.	4F\	4ee-\	4aa-\	4F\	-net	4A-\)	-net	4e-\	net	4ee-\	-net	4dd\	4gg\
*	*	*	*	*	*	*	*	*	*	*Xij	*	*Xij	*	*
!	!	!LO:LB:g=original	!	!	!	!	!	!	!	!	!	!	!	!
=39	=39	=39	=39	=39	=39	=39	=39	=39	=39	=39	=39	=39	=39	=39
2.ryy	.	4G\	4ee-\	4bb-\	4G\	ma-	4B-\	ma-	2.e-\	ma-	[2.ee-\	ma-	4dd\	4aa\
.	.	4F\	4dd\	4aa-\	4F\	.	4A-\	.	.	.	.	.	4dd\	4gg\
.	.	4E-\	4ee-\	4gg\	4E-\	-net	4G\	-net	.	.	.	.	4dd\	4ff\
*	*	*	*	*	*	*	*	*Xij	*	*	*	*	*	*
=40	=40	=40	=40	=40	=40	=40	=40	=40	=40	=40	=40	=40	=40	=40
2.ryy	.	4A-\	4ee-\	4ccc\	4A-\	ma-	(4c\	ma-	4e-\	.	4ee-\]	.	4dd\	4bb\
.	.	4G\	4ee-\	4bb-\	4G\	.	4B-\)	.	4e-\	-net	4ee-\	-net	4dd\	4aa\
.	.	4F\	4ee-\	4aa-\	4F\	-net	4A-\	-net	4e-\	in	4ee-\	in	4dd\	4gg\
*	*	*	*	*	*	*Xij	*	*	*	*	*	*	*	*
=41	=41	=41	=41	=41	=41	=41	=41	=41	=41	=41	=41	=41	=41	=41
2.ryy	.	8G\L	4ee-\	4gg\	8G\	in	8B-\	in	8e-\L	ae-	4ee-\	ae-	4dd\	4ff\
.	.	8E-\J	.	.	8E-\	ae-	8B-\	ae-	8g\J	.	.	.	.	.
.	.	4B-\	4ee-\	4.ff\	4B-\	-ter-	2B-\	-ter-	2f\	-ter-	(4ee-\	-ter-	4a/	4ee\
.	.	4BB-/	4dd\	.	4BB-/	.	.	.	.	.	4dd\)	.	4f/	4dd\
.	.	.	.	8ff\	.	.	.	.	.	.	.	.	.	.
!	!	!	!	!	!	!	!	!	!LO:LB:g=original	!	!	!	!	!
=42	=42	=42	=42	=42	=42	=42	=42	=42	=42	=42	=42	=42	=42	=42
*	*	*	*2\right	*2\right	*	*	*	*	*	*	*	*	*	*
2.ryy	.	2.E-\	2.ee-\	2.ee-;\	2.E-\	-num	2.B-\	-num.	2.g\	-num.	2.ee-\	-num.	2.f/	2.dd\
!	!	!	!LO:LB:g=original	!	!LO:LB:g=original	!	!LO:LB:g=original	!	!	!	!	!	!	!
=43||	=43||	=43||	=43||	=43||	=43||	=43||	=43||	=43||	=43||	=43||	=43||	=43||	=43||	=43||
!	!	!LO:TX:a:t=Solo ada(gio)&colon;	!LO:TX:a:t=adagio	!LO:N:vis=0	!LO:TX:a:t=Gloria Tacet	!	!	!	!LO:TX:a:t=adagio	!	!LO:N:vis=00	!	!	!LO:TX:a:t=adagio
!	!	!LO:TX:b:t=gloria	!LO:N:vis=0	!	!	!	!	!	!	!	!	!	!	!LO:TX:b:t=Gloria
!	!	!	!	!	!	!	!	!	!	!	!	!	!LO:N:vis=0	!LO:N:vis=0
2.ryy	.	4E-\	1.r	1.r	2.ryy	.	8B-\L	Glo-	8g\L	Glo-	0.r	.	1.r	1.r
.	.	.	.	.	.	.	8A-\J	.	8f\J	.	.	.	.	.
.	.	4r	.	.	.	.	4G\	-ri-	4e-\	-ri-	.	.	.	.
.	.	4r	.	.	.	.	4c\	-a	4a-\	-a	.	.	.	.
=44	=44	=44	=44	=44	=44	=44	=44	=44	=44	=44	=44	=44	=44	=44
2.ryy	.	4E-\	.	.	2.ryy	.	4.B-\	Pa-	(4.g\	Pa-	.	.	.	.
.	.	4r	.	.	.	.	.	.	.	.	.	.	.	.
.	.	.	.	.	.	.	8A-\	.	8f\)	.	.	.	.	.
.	.	4r	.	.	.	.	4G/	-tri	4e-\	-tri	.	.	.	.
=45	=45	=45	=45	=45	=45	=45	=45	=45	=45	=45	=45	=45	=45	=45
2.ryy	.	4A-X\	2.r	2.r	2.ryy	.	4A-/	Glo-	4f\	glo-	.	.	2.r	2.r
.	.	4B-\	.	.	.	.	4G/	-ri-	4e-\	-ri-	.	.	.	.
.	.	4BB-/	.	.	.	.	4F/	-a	4d\	-a	.	.	.	.
=46	=46	=46	=46	=46	=46	=46	=46	=46	=46	=46	=46	=46	=46	=46
2.ryy	.	4E-\	8e-/L	16e-/LL	2.ryy	.	8G/	Fi-	8e-\	Fi-	.	.	8r	8r
.	.	.	.	16f/J	.	.	.	.	.	.	.	.	.	.
.	.	.	8e-/	8g/	.	.	8F/	-li-	8e-\	-li-	.	.	8dd\L	8ff\L
.	.	4r	8e-/	8g/	.	.	4E-/	-o	4e-\	-o	.	.	8dd\	8ff\
.	.	.	8e-/	8g/	.	.	.	.	.	.	.	.	8dd\	8ff\
.	.	4r	8e-/	8g/	.	.	4r	.	4r	.	.	.	8dd\	8ff\
.	.	.	8e-/J	8g/J	.	.	.	.	.	.	.	.	8dd\J	8ff\J
!	!	!	!	!	!	!	!	!	!LO:LB:g=original	!	!	!	!LO:LB:g=original	!LO:LB:g=original
=47	=47	=47	=47	=47	=47	=47	=47	=47	=47	=47	=47	=47	=47	=47
!	!	!	!	!	!	!	!LO:N:vis=0	!	!LO:N:vis=0	!	!LO:N:vis=00	!	!	!
2.ryy	.	4B-\	16d/LL	16f/LL	2.ryy	.	1.r	.	1.r	.	0.r	.	16a\LL	16ee\LL
.	.	.	16e-/J	16g/J	.	.	.	.	.	.	.	.	16dd\J	16ff\J
.	.	.	8f/	8a-/	.	.	.	.	.	.	.	.	8ee\	8gg\
.	.	4r	8f/	8a-/	.	.	.	.	.	.	.	.	8ee\	8gg\
.	.	.	8f/	8a-/	.	.	.	.	.	.	.	.	8ee\	8gg\
.	.	4B-\	8f/	8a-/	.	.	.	.	.	.	.	.	8ee\	8gg\
.	.	.	8f/J	8a-/J	.	.	.	.	.	.	.	.	8ee\J	8gg\J
!	!	!	!	!LO:LB:g=original	!	!	!	!	!	!	!	!	!	!
=48	=48	=48	=48	=48	=48	=48	=48	=48	=48	=48	=48	=48	=48	=48
2.ryy	.	4E-\	4.g/	4.b-\	2.ryy	.	.	.	.	.	.	.	4.ff\	4.aa\
.	.	4r	.	.	.	.	.	.	.	.	.	.	.	.
.	.	.	8f/	8a-\	.	.	.	.	.	.	.	.	8ee\	8gg\
.	.	4E-\	4e-/	4g\	.	.	.	.	.	.	.	.	4dd\	4ff\
!	!	!LO:LB:g=original	!	!	!	!	!	!	!	!	!	!	!	!
=49	=49	=49	=49	=49	=49	=49	=49	=49	=49	=49	=49	=49	=49	=49
2.ryy	.	4A-\	4f/	4a-/	2.ryy	.	2.r	.	2.r	.	.	.	4ee\	4gg\
.	.	4B-\	4e-/	4g/	.	.	.	.	.	.	.	.	4dd\	4ff\
.	.	4BB-/	4d/	4f/	.	.	.	.	.	.	.	.	4a/	4ee\
=50	=50	=50	=50	=50	=50	=50	=50	=50	=50	=50	=50	=50	=50	=50
*	*	*	*	*	*	*	*	*	*	*ij	*	*	*	*
2.ryy	.	4E-\	4e-/	4e-/	2.ryy	.	8B-\L	Glo-	8g\L	Glo-	.	.	4f/	4dd\
.	.	.	.	.	.	.	8A-\J	.	8f\J	.	.	.	.	.
.	.	4r	4r	4r	.	.	4G/	-ri-	4e-\	-ri-	.	.	4r	4r
.	.	4r	4r	4r	.	.	4c\	-a	4a-\	-a	.	.	4r	4r
!	!	!	!LO:LB:g=original	!	!	!	!LO:LB:g=original	!	!	!	!	!	!	!
=51	=51	=51	=51	=51	=51	=51	=51	=51	=51	=51	=51	=51	=51	=51
!	!	!	!LO:N:vis=00	!LO:N:vis=00	!	!	!	!	!	!	!LO:N:vis=00	!	!LO:N:vis=00	!LO:N:vis=00
2.ryy	.	4E-\	0.r	0.r	2.ryy	.	4.B-\	Pa-	(4.g\	Pa-	0.r	.	0.r	0.r
.	.	4r	.	.	.	.	.	.	.	.	.	.	.	.
.	.	.	.	.	.	.	8A-\	.	8f\)	.	.	.	.	.
.	.	4r	.	.	.	.	4G/	-tri	4e-\	-tri	.	.	.	.
=52	=52	=52	=52	=52	=52	=52	=52	=52	=52	=52	=52	=52	=52	=52
2.ryy	.	4A-\	.	.	2.ryy	.	4A-/	Glo-	4f\	glo-	.	.	.	.
.	.	4B-\	.	.	.	.	4G/	-ri-	4e-\	-ri-	.	.	.	.
.	.	4BB-/	.	.	.	.	4F/	-a	4d\	-a	.	.	.	.
=53	=53	=53	=53	=53	=53	=53	=53	=53	=53	=53	=53	=53	=53	=53
2.ryy	.	4E-\	.	.	2.ryy	.	4G/	Fi-	4.e-\	Fi-	.	.	.	.
.	.	4r	.	.	.	.	4B-\	-li-	.	.	.	.	.	.
.	.	.	.	.	.	.	.	.	8e-\	-li-	.	.	.	.
.	.	4E-\	.	.	.	.	4e-\	-o	4g\	-o	.	.	.	.
*	*	*	*	*	*	*	*	*	*	*Xij	*	*	*	*
=54	=54	=54	=54	=54	=54	=54	=54	=54	=54	=54	=54	=54	=54	=54
2.ryy	.	4B-\	.	.	2.ryy	.	4e-\	et	2f\	et	.	.	.	.
.	.	4r	.	.	.	.	4d\	Spi-	.	.	.	.	.	.
.	.	4r	.	.	.	.	4c\	.	4f\	Spi-	.	.	.	.
!	!	!	!	!	!	!	!	!	!LO:PB:g=original	!	!	!	!	!
=55	=55	=55	=55	=55	=55	=55	=55	=55	=55	=55	=55	=55	=55	=55
!	!	!	!LO:N:vis=00	!LO:N:vis=00	!	!	!	!	!	!	!LO:N:vis=00	!	!LO:N:vis=00	!LO:N:vis=00
2.ryy	.	4D\	0.r	0.r	2.ryy	.	4B-\	-ri-	2b-\	-ri-	0.r	.	0.r	0.r
.	.	4D\	.	.	.	.	4d\	.	.	.	.	.	.	.
.	.	4D\	.	.	.	.	4f\	.	8a-\	-tu-	.	.	.	.
.	.	.	.	.	.	.	.	.	8a-\	-i	.	.	.	.
=56	=56	=56	=56	=56	=56	=56	=56	=56	=56	=56	=56	=56	=56	=56
2.ryy	.	4E-\	.	.	2.ryy	.	4f\	.	2.g\	San-	.	.	.	.
.	.	4E-\	.	.	.	.	8e-\L	.	.	.	.	.	.	.
.	.	.	.	.	.	.	8d\J	-tu-	.	.	.	.	.	.
.	.	4E-\	.	.	.	.	4e-\	-i	.	.	.	.	.	.
!	!	!	!	!	!	!	!LO:LB:g=original	!	!	!	!	!	!	!
=57	=57	=57	=57	=57	=57	=57	=57	=57	=57	=57	=57	=57	=57	=57
2.ryy	.	4A-\	.	.	2.ryy	.	2e-\	San-	4f\	.	.	.	.	.
.	.	4B-\	.	.	.	.	.	.	4g\	.	.	.	.	.
.	.	4BB-/	.	.	.	.	4d\	.	8f\L	.	.	.	.	.
.	.	.	.	.	.	.	.	.	8e-\J	.	.	.	.	.
=58	=58	=58	=58	=58	=58	=58	=58	=58	=58	=58	=58	=58	=58	=58
2.ryy	.	2.E-\	.	.	2.ryy	.	2.e-\	-cto.	2.e-\	-cto.	.	.	.	.
=59||	=59||	=59||	=59||	=59||	=59||	=59||	=59||	=59||	=59||	=59||	=59||	=59||	=59||	=59||
!	!	!	!LO:TX:b:t=Sicut erat	!LO:TX:a:t=All(egr)o	!	!	!LO:TX:a:t=6	!	!LO:TX:a:t=all(egr)o	!	!LO:TX:a:t=all(egr)o	!	!	!
!	!	!LO:N:vis=00	!LO:TX:a:t=All(egr)o	!	!LO:N:vis=00	!	!LO:N:vis=00	!	!	!	!	!	!LO:N:vis=00	!LO:N:vis=00
2.ryy	.	0.r	2.r	4b-\	0.r	.	0.r	.	2.r	.	4b-\	Si-	0.r	0.r
.	.	.	.	4cc\	.	.	.	.	.	.	4cc\	.	.	.
.	.	.	.	4dd\	.	.	.	.	.	.	4dd\	-cut	.	.
=60	=60	=60	=60	=60	=60	=60	=60	=60	=60	=60	=60	=60	=60	=60
2.ryy	.	.	4e-/	4ee-\	.	.	.	.	4e-\	Si-	(4ee-\	e-	.	.
.	.	.	4f/	4dd\	.	.	.	.	4f\	.	4dd\)	.	.	.
.	.	.	4g/	4ee-\	.	.	.	.	4g\	-cut	4ee-\	-rat	.	.
!	!	!	!	!	!	!	!	!	!	!	!LO:LB:g=original	!	!	!
=61	=61	=61	=61	=61	=61	=61	=61	=61	=61	=61	=61	=61	=61	=61
2.ryy	.	.	2a-/	4cc\	.	.	.	.	2a-\	e-	4cc\	in	.	.
.	.	.	.	4dd\	.	.	.	.	.	.	4dd\	.	.	.
.	.	.	4g/	4een\	.	.	.	.	4g\	-rat	4een\	prin-	.	.
=62	=62	=62	=62	=62	=62	=62	=62	=62	=62	=62	=62	=62	=62	=62
2.ryy	.	.	4f/	4ff\	.	.	.	.	4f\	in	4ff\	-ci-	.	.
.	.	.	4g/	4ee-\	.	.	.	.	4g\	.	4ee-\	-pi-	.	.
.	.	.	4a-/	4ff\	.	.	.	.	4a-\	prin-	4ff\	-o	.	.
=63	=63	=63	=63	=63	=63	=63	=63	=63	=63	=63	=63	=63	=63	=63
!	!	!LO:N:vis=0	!	!	!LO:N:vis=0	!	!LO:N:vis=0	!	!	!	!	!	!LO:N:vis=0	!LO:N:vis=0
2.ryy	.	1.r	2b-/	4dd\	1.r	.	1.r	.	2b-\	-ci-	4dd\	et	1.r	1.r
.	.	.	.	4b-\	.	.	.	.	.	.	4b-\	nunc	.	.
.	.	.	4g/	4ee-X\	.	.	.	.	4g\	-pi-	4ee-X\	et	.	.
!	!	!	!	!LO:LB:g=original	!	!	!	!	!	!	!	!	!	!
=64	=64	=64	=64	=64	=64	=64	=64	=64	=64	=64	=64	=64	=64	=64
2.ryy	.	.	2.f/	4ee-\	.	.	.	.	2f\	-o	4ee-\	sem-	.	.
.	.	.	.	8dd\L	.	.	.	.	.	.	8dd\L	.	.	.
.	.	.	.	8cc\J	.	.	.	.	.	.	8cc\J	.	.	.
.	.	.	.	4ddt\	.	.	.	.	4f\	et	4dd\	-per	.	.
=65	=65	=65	=65	=65	=65	=65	=65	=65	=65	=65	=65	=65	=65	=65
!	!	!LO:TX:a:t=Allo Tut&colon;	!	!	!	!	!	!	!	!	!	!	!	!LO:TX:b:t=Sicut erat
2.ryy	.	4E-\	4g/	4ee-\	(4E-\	Et	4B-\	Et	(4g\	nunc	(4ee-\	et	4dd\	4ff\
.	.	4F\	4a-/	4dd\	4F\)	.	4A-\	in	4a-\)	.	4dd\)	.	4dd\	4ff\
.	.	4G\	4b-/	4ee-\	4G\	in	4G/	sae-	4b-\	et	4ee-\	in	4dd\	4ff\
!	!	!	!LO:LB:g=original	!	!	!	!	!	!	!	!	!	!	!
=66	=66	=66	=66	=66	=66	=66	=66	=66	=66	=66	=66	=66	=66	=66
2.ryy	.	4A-X\	4e-/	4cc\	4.A-X\	sae-	4c\	.	2e-\	sem-	2cc\	sae-	4a/	4dd\
.	.	4G\	4e-/	4cc\	.	.	4c\	-cu-	.	.	.	.	4a/	4dd\
.	.	.	.	.	8G\	-cu-	.	.	.	.	.	.	.	.
.	.	4A-\	4e-/	4cc\	4A-\	-la	4c\	-la	4e-\	-per	4cc\	-cu-	4a/	4dd\
!	!	!	!	!	!	!	!	!	!LO:LB:g=original	!	!LO:LB:g=original	!	!	!
=67	=67	=67	=67	=67	=67	=67	=67	=67	=67	=67	=67	=67	=67	=67
2.ryy	.	4F\	4a-\	4ff\	4F\	sae-	4c\	sae-	4a-\	et	4ff\	-la	4ee\	4gg\
.	.	4G\	4b-\	4ee-\	4G\	.	4B-\	.	4b-\	.	4ee-\	sae-	4ee\	4gg\
.	.	4A-\	4cc\	4ff\	4A-\	-cu-	4A-\	-cu-	4cc\	in	4ff\	-cu-	4ee\	4gg\
!	!	!	!	!	!	!	!LO:LB:g=original	!	!	!	!	!	!LO:LB:g=original	!
=68	=68	=68	=68	=68	=68	=68	=68	=68	=68	=68	=68	=68	=68	=68
2.ryy	.	4B-\	4f/	4dd\	4B-\	-lo-	2d\	-lo-	2f\	sae-	2dd\	-lo-	4cc\	4ee\
.	.	4A-\	4f/	4dd\	4A-\	.	.	.	.	.	.	.	4cc\	4ee\
.	.	4B-\	4f/	4dd\	4B-\	-rum	4d\	-rum	4f\	-cu-	4dd\	-rum	4cc\	4ee\
=69	=69	=69	=69	=69	=69	=69	=69	=69	=69	=69	=69	=69	=69	=69
2.ryy	.	4G\	4b-\	4gg\	4G\	sae-	4B-\	a-	4b-\	-la	4gg\	a-	4dd\	4aa\
.	.	4A-\	4cc\	4ff\	4A-\	.	4c\	.	4b-\	sae-	4ff\	.	4dd\	4aa\
.	.	4B-\	4dd\	4gg\	4B-\	-cu-	4d\	.	4b-\	-cu-	4gg\	.	4dd\	4aa\
=70	=70	=70	=70	=70	=70	=70	=70	=70	=70	=70	=70	=70	=70	=70
2.ryy	.	4c\	4g/	4ee-\	4c\	-lo-	2e-\	.	2g\	-lo-	2ee-\	.	4dd\	4ff\
.	.	4B-\	4g/	4ee-\	4B-\	.	.	.	.	.	.	.	4dd\	4ff\
.	.	4c\	4g/	4ee-\	4c\	-rum	4e-\	-men	4g\	-rum	4ee-\	-men	4dd\	4ff\
!	!	!	!	!	!LO:LB:g=original	!	!	!	!	!	!	!	!	!
=71	=71	=71	=71	=71	=71	=71	=71	=71	=71	=71	=71	=71	=71	=71
2.ryy	.	4A-\	4f/	4ee-\	4A-\	a-	2c\	a-	2.f\	a-	4ee-\	a-	2.ryy	4ee\
.	.	4F\	4f/	4ff\	4F/	.	.	.	.	.	4ff\	.	.	4ee\
!	!	!LO:TX:a:t=P:problem:mixed beam	!	!	!LO:TX:a:t=P:problem:mixed beam	!	!	!	!	!	!	!	!	!
.	.	8B-\L	4f/	4ee-\	8B-\L	.	4B-\	.	.	.	4dd\	.	.	4ee\
.	.	8BB-/J	.	.	8BB-\J	.	.	.	.	.	.	.	.	.
=72	=72	=72	=72	=72	=72	=72	=72	=72	=72	=72	=72	=72	=72	=72
2.ryy	.	4E-\	8e-/L	8g/L	4E-\	-men	4c\	-men	4f\	-men	4ee-\	-men	8dd\L	8ff\L
.	.	.	8f/J	8a-/J	.	.	.	.	.	.	.	.	8ee\J	8gg\J
!	!	!	!LO:LB:g=original	!	!	!	!	!	!	!	!	!	!	!
.	.	4r	4g/	4b-\	4r	.	4r	.	4r	.	4r	.	4ff\	4aa\
.	.	4r	4a-/	4cc\	4r	.	4r	.	4r	.	4r	.	4gg\	4bb\
!	!	!	!	!LO:LB:g=original	!	!	!	!	!	!	!	!	!	!
=73	=73	=73	=73	=73	=73	=73	=73	=73	=73	=73	=73	=73	=73	=73
!	!	!	!	!	!LO:TX:a:t=1	!	!	!	!	!	!	!	!	!
2.ryy	.	2.r	4g/	4b-/	2.r	.	2.r	.	2.r	.	2.r	.	4ff\	4aa\
.	.	.	4f/	4a-/	.	.	.	.	.	.	.	.	4ee\	4gg\
.	.	.	4e-/	4g/	.	.	.	.	.	.	.	.	4dd\	4ff\
!	!	!	!	!	!	!	!	!	!	!	!LO:LB:g=original	!	!	!LO:LB:g=original
=74	=74	=74	=74	=74	=74	=74	=74	=74	=74	=74	=74	=74	=74	=74
2.ryy	.	4r	4f/	4a-/	4r	.	4r	.	4r	.	4r	.	4ee\	4gg\
.	.	4r	4e-/	4g/	4r	.	4r	.	4r	.	4r	.	4dd\	4ff\
.	.	4B-\	4d/	4f/	4B-\	A-	4B-\	A-	4f\	a-	4dd\	a-	4a/	4ee\
!	!	!	!	!	!	!	!LO:LB:g=original	!	!	!	!	!	!	!
=75	=75	=75	=75	=75	=75	=75	=75	=75	=75	=75	=75	=75	=75	=75
*	*	*	*	*	*	*	*	*	*	*	*	*	*2\right	*
2.ryy	.	2.E-\	2.e-/	2.g/	2.E-\	-men.	2.B-\	-men.	2.g\	-men.	2.ee-\	-men.	2.dd\	2.ff\
==	==	==	==	==	==	==	==	==	==	==	==	==	==	==
*-	*-	*-	*-	*-	*-	*-	*-	*-	*-	*-	*-	*-	*-	*-
!!!system-decoration: [(s1,s2)][(s3,s4,s5,s6)][(s7,s8,s9)] [(s10)]
!!!ENC: Berenika Jozajtis
!!!END: 2024-06-04
!!!ENC: Leszek Kubiak
!!!END: 2024-09-01
